X:325
T:Mr. Isaac's Maggot. (p)1695.PLFD.325
M:3/2
L:1/8
Q:3/4=90
S:Playford, Dancing Master,9th Ed,1695.
R:.Maggot
O:England
H:1695.
Z:Chris Partington.
K:C
g4e4d4|cde2d2c2d2G2|G2c4B2A4|A2d4A2B2G2|
g4e4d4|cde2d2c2d2G2|G2c4B2 A2fe|d2c2d2B2c4:|
|:E2G4A2G4|E2G4ABc2G2|E2G4A2G4|E2G4ABc2G2|
(g3f/g/)(a3g/f/)(g3f/g/)|agfe fedcd2G2|(g3f/g/)(a3g/f/)(g3 f/g/)|\
agfe defgd2c2|
e4(f3e/f/)g4|cde2d2c2d2G2|e4(f3 e/f/)g4|G2c2cde2d2c2:|
